img/icons/clock.svg

<svg xmlns="http://www.w3.org/2000/svg"
 xmlns:xlink="http://www.w3.org/1999/xlink"
 width="19px" height="19px"  viewBox="0 0 19 19">
<path fill-rule="evenodd"  fill="#000000"
 d="M9.552368,17.0 C4.552307,17.035156 2.034729,14.552734 1.9998169,9.551758 C1.9649658,4.5527344 4.44751,2.0351562 9.447449,2.0 C14.447327,1.9648438 16.964966,4.4472656 16.999817,9.447754 C17.034851,14.447754 14.552307,16.964844 9.552368,17.0 ZM9.499939,3.8354492 C13.299377,3.8354492 15.199097,5.7368164 15.199097,9.535156 C15.199097,13.334473 13.299377,15.234863 9.499939,15.234863 C5.7003174,15.234863 3.800537,13.334473 3.800537,9.535156 C3.800537,5.7368164 5.7003174,3.8354492 9.499939,3.8354492 ZM9.499939,5.199707 C9.847412,5.199707 10.12915,5.4379883 10.12915,5.732422 C10.12915,5.732422 10.12915,9.281738 10.12915,9.281738 C10.12915,9.576172 9.847412,9.813965 9.499939,9.813965 C9.152283,9.813965 8.870544,9.576172 8.870544,9.281738 C8.870544,9.281738 8.870544,5.732422 8.870544,5.732422 C8.870544,5.4379883 9.152283,5.199707 9.499939,5.199707 ZM6.562805,8.976074 C6.562805,8.976074 10.124939,8.976074 10.124939,8.976074 C10.124939,8.976074 10.124939,9.60498 10.124939,9.60498 C10.124939,9.60498 10.124939,10.22168 10.124939,10.22168 C10.124939,10.22168 6.562805,10.234863 6.562805,10.234863 C6.215149,10.234863 5.9334106,9.953125 5.9334106,9.60498 C5.9334106,9.257324 6.215149,8.976074 6.562805,8.976074 Z"/>
</svg>

<svg xmlns="http://www.w3.org/2000/svg" width="19" height="19"><path fill-rule="evenodd" d="M9.552 17c-5 .035-7.517-2.447-7.552-7.448-.035-5 2.448-7.517 7.447-7.552 5-.035 7.518 2.447 7.553 7.448.035 5-2.448 7.517-7.448 7.552zM9.5 3.835c3.8 0 5.7 1.902 5.7 5.7 0 3.8-1.9 5.7-5.7 5.7-3.8 0-5.7-1.9-5.7-5.7 0-3.798 1.9-5.7 5.7-5.7zm0 1.365c.347 0 .63.238.63.532v3.55c0 .294-.283.532-.63.532-.348 0-.63-.238-.63-.532v-3.55c0-.294.282-.532.63-.532zM6.563 8.976h3.562v1.246l-3.562.013a.63.63 0 010-1.259z"/></svg>
